resources/svg/pie-chart-alt-o.svg

<svg xmlns="http://www.w3.org/2000/svg" viewBox="0 0 15 15" fill="none"><path d="M6.5 0.5V0C6.22386 0 6 0.223858 6 0.5L6.5 0.5ZM14.5 8.5V9C14.7761 9 15 8.77614 15 8.5H14.5ZM6.5 8.5H6V9H6.5V8.5ZM6.5 15C10.0899 15 13 12.0899 13 8.5H12C12 11.5376 9.53757 14 6.5 14V15ZM0 8.5C0 12.0899 2.91015 15 6.5 15V14C3.46243 14 1 11.5376 1 8.5H0ZM1 8.5C1 5.46243 3.46243 3 6.5 3V2C2.91015 2 0 4.91015 0 8.5H1ZM6.5 1C10.6421 1 14 4.35786 14 8.5H15C15 3.80558 11.1944 0 6.5 0V1ZM6 0.5V8.5H7V0.5H6ZM6.5 9H14.5V8H6.5V9Z" fill="black"/></svg>

<svg xmlns="http://www.w3.org/2000/svg" viewBox="0 0 15 15" fill="none"><path d="M6.5.5V0a.5.5 0 00-.5.5h.5zm8 8V9a.5.5 0 00.5-.5h-.5zm-8 0H6V9h.5v-.5zm0 6.5A6.5 6.5 0 0013 8.5h-1A5.5 5.5 0 016.5 14v1zM0 8.5A6.5 6.5 0 006.5 15v-1A5.5 5.5 0 011 8.5H0zm1 0A5.5 5.5 0 016.5 3V2A6.5 6.5 0 000 8.5h1zM6.5 1A7.5 7.5 0 0114 8.5h1A8.5 8.5 0 006.5 0v1zM6 .5v8h1v-8H6zM6.5 9h8V8h-8v1z" fill="currentColor"/></svg>
